X:8
T:8 Fac, ut ardeat cor meum
T:à due
M:C|=2/1
L:1/4
%%staves s | a | {1 2 3 4}
Q:"Allegro"
K:Gm
V:s name=Sopran dyn=up
d4e4|d3B(cA)(dc)|B2G2(gf)(=ed)|
w:Fac, ut ar-de-at _ cor_ me-um in_ a -
V:a name=Alt dyn=up
z8|z8|!forte!G4B4|
w:Fac, ut
V:1 name="Str.\nBc."
d4e4|d3BcAdc|BB,A,G,gf=ed|
V:2
z8|z8|!forte!G4B4|
V:3
zBAGcBAG|^FDG4F2|G4z2G2-|
V:4
x8|x8|x8|
V:s		% M4
^cAd4c2|d2A2z2=c2-|c2B2A4|
w:man-do Chri-stum De-um, Chri -stum De-
V:a
A3F(G=E)(AG)|F2D2(=cB)(AG)|^FDG4F2|
w:ar-de-at_ cor_ me-um in_ a -man-do Chri-stum
V:1
^cAd4c2|d4z2=c2-,|c2B2A4|
V:2
A3FG=EAG|Ff=edc'bag|^fdg4f2|
V:3
G2=F2=E4|D2^F2G4|[I:staff 3]A2x6|
V:4
x8|!forte!D,4_E,4|D,3B,,C,A,,D,C,|
% (31)
V:s		% M7
G4B4|(A3F)(G=E)(AG)|FA(AB)zB(Bc)|
w:um, ut si -bi_ com -pla ------
V:a
G2D2z2G2-|G2=F2=E4|D2F2TG4|
w:De-um, Chri -stum De-um, ut si-
V:1
g4b4|a3fg=eag|fA(AB)zB(Bc)|
V:2
G2z2z2g2-|g2=f2=e4|!dolce!F4G4|
V:3
x8|x8|x8|
V:4
B,,B,,A,,G,,G,=F,=E,D,|^C,A,,D,4C,2|D,4=E,4|
V:s		% M10
zc(cd)zd(d_e)|ze(ef)zwdwcwd|Te4z!dolce!wdwcwd|
w:----------------
V:a
TA4TB4|Tc4zwBwAwB|Tc4z!dolce!wBwAwB|
w:bi com-pla -------
V:1
zc(cd)zd(d_e)|ze(ef)zw[Bd]w[Ac]w[Bd]|T!trill(![ce]4!trill)!zw[Bd]w[Ac]w[Bd]|
V:2
A4B4|c4x4|x4!dolce!x4|
V:3
x8|x8|x8|
V:4
F,4G,4|A,4B,4-|B,A,G,A,B,4-|
V:s		% M13
Te4!forte!Td3/c//d//we2|Td3/c//d//we2d4|c4B4|
w:------------
V:a
Tc4!forte!TB3/A//B//wc2|TB3/A//B//wc2BFB2-|B2A2z2G2-|
w:---------------
V:1
T!trill(![ce]4!trill)!T[Bd]3/[Ac]//[Bd]//w[ce]2|T[Bd]3/[Ac]//[Bd]//w[ce]2d4|c4B4|
V:2
x4!forte!x4|x4BFB2-|B2A2zDG2-|
V:3
x8|x8|x8|
V:4
B,A,G,A,B,3B,|B,3A,B,2zD,|E,C,F,E,D,B,,zB,,|
% (32)
V:s		% M16
A4G2e2-|e2d2z2c2-|c2=B2ce2d|
w:-----------
V:a
G2^F2G4|=F4E4|D3DC4|
w:------ce-am.
V:1
A4GBe2-|e2d2zGc2-|c2=B2ce2d|
V:2
G2^F2G4|=F4E4|D4C4|
V:3
x8|x8|x8|
V:4
C,A,,D,C,B,,G,,zG,|_A,F,B,A,G,E,zE,|F,D,G,F,E,2C,2|
V:s		% M19
c_B(AG)^F2z2|z4!forte!d4|e4d3B|
w:--ce -am. Fac, ut ar-de-
V:a
z4!forte!D4|E4D3B|(cA)(dc)B2G2-|
w:Fac, ut ar-de-at_ cor_ me -
V:1
c_BAG^F2z2|z4!forte!d4|e4d3B|
V:2 stem=down
z4!forte!D4|E4D3B|cAdc!forte!BGg2-'|
V:3 stem=up
x8|z2c4B2|A4G4|
V:4
z2C4B,G,|CB,A,G,^F,2G,2-|G,2^F,2G,4|
V:s		% M22
(cA)(dc)(BG)d2-|d2^c2d2z(d|e=c)(fe)Td4|
w:at_ cor_me ----um in__ a -man-
V:a
G2^F2G2z2|z4z2B2-|B2A2BF(FG)|
w:--um in_ a-man ---
V:1
cAdcBGd2-|d2^c2d2zd|_e=cfed4|
V:2
g2^f2[Gg]2z2|=E4D2B2-|B2A2BF(FG)|
V:3 stem=auto
A4x4|x8|x8|
V:4
A,4G,3=F,|G,=E,A,G,F,D,z2|z4B,,4|
% (33)
V:s		% M25
Te4Tf4|Tg4fwAwGwA|TB4z!dolce!wAwGwA|
w:-----------
V:a
zG(GA)zA(AB)|zB(Bc)AwFw=EwF|TG4z!dolce!wFw=EwF|
w:-----------------
V:1
e4f4|g4[Ac]w[fa]w[=eg]w[fa]|T[gb]4zw[fa]w[=eg]w[fa]|
V:2 stem=auto
zG(GA)zA(AB)|zB(Bc)x4|x4!dolce!x4|
V:3
x8|x8|x8|
V:4
C,4D,4|E,4F,4-|F,=E,D,E,F,4-|
V:s		% M28
TB4z!forte!wAwGwA|Tc4TB3/A//B//wc2|TB3/A//B//wc2z(Be)d|
w:------------do, in_ a-
V:a
TG4z!forte!wFw=EwF|TA4TG3/^F//G//wA2|TG3/^F//G//wA2GDB2|
w:--------do Chri --stum De-um, ut
V:1
T[gb]4zw[fa]w[=eg]w[fa]|T[ac']4T[gb]3/[^fa]//[gb]//w[ac']2|T[gb]3/[^fa]//[gb]//w[ac']2bB_ed|
V:2
x4!forte!x4|x8|x4g2b2|
V:3
x8|x8|x8|
V:4
F,=E,D,E,F,4|zD,=E,^F,G,3F,|G,3^F,G,2G,2-|
V:s		% M31
(cA)(dc)(BG)(cB)|AF(BA)(GE)AG|^FDD2z4|
w:man -do_ Chri -stum_ De-um ut_ si -bi com-pla-ce-am.
V:a
A4G4|=F4E4|D2G4^F2|
w:so-bi com -pla -ce-
V:1
cAdcBGcB|AFBAGEAG|^F2D2z4|
V:2
a4g4|=f4e4|d^fgGG2^F2||
V:3
[I:staff 4]x8|x8|z2B,2A,4|
V:4
G,2=F,4_E,2-|E,2D,4C,2-|C,2zB,,C,A,,D,C,|
% (34)
V:s		% M34
!forte!d4e4|d3B(cA)(dc)|B2c4B2|
w:Fac, ut ar-de-at_ cor_me --
V:a
G2z2!forte!G4|B4A3^F|(GB)(AG)^FDG2-|
w:am. Fac, ut ar-de-at_ cor_ me-um in
V:1
!forte!d4e4|d3BcAdc|B2c4B2|
V:2
G2z2!forte!G4|B4!forte!A3^F|GBAG^FDG2-|
V:3
G,2z2x4|x8|x8|
V:4
B,,2G,,2z4|z4D,4|E,4D,3B,,|
V:s		% M37
A4Gdde|ze(ed)zd(dc)|zc(cB)zB(BA)|
w:-um, ut si-bi com-pla --------ce -
V:a
G2^F2G2B2|TA4TG4|T=F4TE4|
w:_ a-man-do Chri-stum De -
V:1
A4Gdde|ze(ed)zd(dc)|zc(cB)zB(BA)|
V:2
G2^F2G2B2|A4G4|=F4E4|
V:3
x8|x8|x8|
V:4
C,A,,D,C,B,,2G,2|=F,4E,4|D,4C,4|
V:s		% M40
B2F2TG4|TA4TB4|Tc4d4-|
w:am, ut si-bi com -pla-
V:a
D2zDDEzE|(EF)zF(FG)zG|(GA)zAB2z2|
w:um ut si-bi com-pla -------ce-am,
V:1
B2zddeze|efzffgzg|gazab2z2|
V:2
D2F2G4|A4B4|c4d4-|
V:3
x8|x8|x8|
V:4
B,,2zB,,(B,,C,)zC,|(C,D,)zD,(D,E,)zE,|(E,F,)zF,B,,D,C,B,,|
% (35)
V:s		% M43
d4c4-|c4B4-|B3BA2z2|
w:-----ce-am.
V:a
G8|^F3FG4|z4!forte!D4|
w:com-pla-ce-am. Fac,
V:1
g8|^f4g4|z4!forte!d4|
V:2
d4c4-|c4B4-|B4A4|
V:3
x8|x8|x4z^F=ED|
V:4
E,D,C,B,,A,,C,B,,A,,|D,C,B,,A,,G,,B,,A,,G,,|C,B,,A,,G,,^F,,2z2|
V:s		% M46
z4!forte!d4|e4d3d|(cB)(AG)^F2G2-|
w:Fac, ut ar-de-at_ cor_ me -
V:a
E4D3d|(cB)(AG)^F2D2|z4z2B2|
w:ut ar-de-at_ cor_ me-um ut
V:1
z4!forte!d4|_e4d^f=ed|c'bag^fdg2-|
V:2
e4d^F=ED|cBAG!forte!^F2z2|z4z2B2|
V:3
cBAG^F2z2|x8|x8|
V:4
x8|z4D,4|E,4D,3B,,|
V:s		% M49
G2^F2G4|z4zdde|ze(ed)zd(dc)|
w:--um, ut si-bi com-pla ----
V:a
A4G3B|(cA)(dc)B2zB|(BA)zA(AG)zG|
w:si-bi com-pla -ce -am, com-pla -----
V:1
g2^f2g4|z4zd(de)|ze(ed)zd(dc)|
V:2
A4G3B|cAdcB2zB|(BA)zA(AG)zG|
V:3
x8|x8|x8|
V:4
C,A,,D,C,B,,G,,G,2-|G,2^F,2G,2zG,|(G,^F,)z=F,(F,=E,)z_E,|
% (36)
V:s		% M52
zc(cB)zB(BA)|BwdwcwdTe4|z!dolce!wdwcwdTe4|!forte!d4c4|
w:-----------------
V:a
(GF)zF(FE)zE|DwBwAwBTc4|z!dolce!wBwAwBTc4|!forte!BFB4A2|
w:-------------------
V:1
zc(cB)zB(BA)|[DB][Bd][Ac][Bd]T[ce]4|z[Bd][Ac][Bd]T[ce]4|d4c4|
V:2
(GF)zF(FE)zE|x8|!dolce!x8|!forte!BFB4A2|
V:3
x8|x8|x8|x8|
V:4
(E,D,)zD,(D,C,)zC,|B,,4-B,,A,,G,,A,,|B,,4-B,,A,,G,,A,,|B,,3D,E,C,F,E,|
V:s		% M56
zBABTc4|z!dolce!BABTc4|B2z!forte!B(Bc)zc|
w:-------------
V:a
BG^FBTA4|z!dolce!G^FGTA4|G!forte!D(DE)z=E(EF)|
w:----------------
V:1
z[GB][^FA][GB]T[Ac]4|z[GB][^FA][GB]T[Ac]4|Bd(de)z=e(ef)|
V:2
x8|!dolce!x8|!forte!G2zB(Bc)zc|
V:3
x8|x8|x8|
V:4
D,B,,z2z^F,=E,F,|G,4-G,^F,=E,F,|G,2zG,,(G,,A,,)zA,,|
V:s		% M59
(cd)zdG2z2|!forte!d4e4|d3B(cA)(dc)|Bd(de)ze(ed)|
w:--ce-am. Fac, ut ar-de-at_ cor_ me ------
V:a
z^F(FG)zG(GA)|^F2!forte!d4(c2-|c2B2)A4|G4^F2=F2|
w:----ce -am in a --man ---
V:1
z^f(fg)zg(ga)|^fd!forte!d'4c'2-|c'2b2a4|g2(de)ze(ed)|
V:2
(cd)zdG2z2|!forte!d4e4|d3BcAdc|BdG2^F2=F2|
V:3
x8|x8|x8|x8|
V:4
(A,,B,,)z=B,,(B,,C,)z^C,|D,8-|D,8-|D,8-|
% (37)
V:s		% M63
zd(dc)d4|z4e4-|e4d4-|
w:---um, ut_ si-
V:a
=E2_E2D2z2|B8|A8|
w:--do Chri-stum
V:1
zd(dc)d4|z4e4-|e4d4-|
V:2
=E2_E2D4|B8|A8|
V:3
x8|x8|x8|
V:4
D,4z^F,=E,D,|G,=F,_E,D,C,E,D,C,|F,E,D,C,B,,D,C,B,,|
V:s		% M66
d4c4-|c2c2B2d2-|d2c4B2|
w:-bi_ com-pla ----
V:a
G8|^F4G2z2|z2G2^F2GG|
w:De -um, ut si-bi com-
V:1
d4c4-|c2c2B2z2|z2g2^fdg2-|
V:2
G8|^F4G2d2-|d2c4B2|
V:3
x8|x8|x8|
V:4
E,D,C,B,,A,,C,B,,A,,|D,C,B,,A,,G,2=F,2|E,4D,4-|
V:s		% M69
A3AG2z2|z8|z8|Hz4|]
w:-ce-am.
V:a
G2^F2G2z2|z8|z8|Hz4|]
w:pla-ce-am.
V:1
g2^f2Gwfwgw^c|dAB^FGD_E^C|D^fgBAgAf|[GBg]2Hz2|]
V:2
A4G!forte!fg^c|!sim!x8|x8|x4|]
V:3
x8|x8|x8|x4|]
V:4
D,4G,,2z2|zwA,wB,w^F,G,2z2|zwD,wE,wB,,C,2D,2|HG,,4|]

